X: 10298
T: Dolar Durba
R: polka
M: 2/4
K: Dmixolydian
|:DF/G/ Ad|cc BG|cc BG|cG AF|
DF/G/ Ad|cc BG|cG A/B/A/G/|FD D2:|
|:A/d/f Bd/f/|gd/e/ fd|A/d/f Bd/f/|gg fd|
A/d/f Bd/f/|ge fd|f/e/d/B/ A/B/A/G/|FD D2:|

